X: 1038
T: Yearlings in the Canebreak
C:Capt. M.J. Bonner, 1925
B: jims roots
M:2/4
L:1/8
Q: 1/4=100
K:A
V:1 
%N:ABC'd from Barry Mitterhoff by Jim Kendrick
|:"Am"A2AA [A,2E2][A,E][B,E] | [=C2E2][A,E][CE] [A,2E2][A,E][B,E] | [=C2E2][CE][CE] [C=F][CE]DC | "G"[B,D][B,D][B,D]E [D2=G,2] D=G:|
A2AA [A,2E2][A,E][B,E] | [=C2E2][A,E][CE] [A,2E2][A,E][B,E] | [=C2E2][CE][CE] =FEDC | [B,D][B,D][B,D]E [D2=G,2] [DG]z|
|:"A"e3 d ede2- |eded e2e2 | "Bm"[BE][ce][de][de] [df]d[Ae][ce] | [de][de][df][d=g] "E"[d2f2] [df][de] |
"A"ce2 c ec e2- | ecec e2 [A2E2] | "Bm"[Af][Ae][Af]g afed | "E"[ce][Ae][Be][ce] "A"[A2e2][ce]z:|
W: End on G
% abcbook-tune_id 6298c297fc2a944efd103c2f


% abcbook-boost 0
% abcbook-tablature 
% abcbook-transpose 
% abcbook-lastupdated 1654178457107
% abcbook-soundfonts 
% abcbook-repeats 1


